X:1
T:F. A. J. Hervey
T:Castle Rising
%%score { ( 1 2 ) | ( 3 4 ) }
L:1/8
Q:1/4=184
M:3/2
K:Eb
V:1 treble 
V:2 treble 
V:3 bass 
V:4 bass 
V:1
"^Presto" G4 | A4 G4 F4 C4 | E4 (D2 C2) D4 D4 | E4 E4 F4 F4 | G12 G4 | G4 c4 B4 =A4 | B6 A2 G4 B4 | %7
 A4 G4 F6 F2 | F12 z4 | G4 ^F4 G4 | A8 G4 | F8 G4 | E12 | e4 e4 e4 | d8 c4 | B12 | B4 c4 d4 | %17
 e8 B4 | B8 A4 | G8 G4 | A8 G4 | F8 F4 | E12 | E8 E8 |] %24
V:2
 E4 | E4 E4 C4 C4 | B,4 B,4 B,4 =A,4 | C4 C4 C4 C4 | D12 D4 | G4 G4 F4 F4 | F4 D4 E4 E4 | %7
 E4 E4 E6 E2 | D12 z4 | E4 E4 E4 | E8 E4 | D8 D4 | E12 | E4 A4 G4 | ^F8 =A4 | G12 | F4 F4 F4 | %17
 E8 E4 | E8 E4 | D8 =E4 | F8 E4 | (E4 D2 C2) D4 | E12 | C8 B,8 |] %24
V:3
 B,4 | A,4 B,4 A,4 A,4 | G,4 (F,2 E,2) F,4 G,4 | G,4 G,4 A,4 C4 | =B,12 B,4 | C4 E4 D4 C4 | %6
 B,4 B,4 B,4 G,4 | A,4 B,4 C6 C2 | B,12 z4 | B,4 =A,4 B,4 | C8 B,4 | A,8 B,4 | G,12 | G,4 C4 B,4 | %14
 =A,8 D4 | D12 | D4 C4 B,4 | B,8 B,4 | C8 C4 | =B,8 C4 | C8 B,4 | (C4 B,6) A,2 | G,12 | A,8 G,8 |] %24
V:4
 E,4 | C,4 E,4 A,,4 A,,4 | B,,4 B,,4 B,,4 G,,4 | C,6 B,,2 A,,4 A,4 | G,12 G,4 | E,4 C,4 F,4 E,4 | %6
 D,4 B,,4 E,4 _D,4 | C,4 G,,4 A,,4 =A,,4 | B,,12 z4 | E,4 E,4 E,4 | E,8 E,4 | B,,8 B,,4 | C,12 | %13
 C,4 C,4 C,4 | D,8 ^F,4 | G,12 | A,4 A,4 A,4 | G,8 G,4 | F,8 F,4 | G,8 C,4 | F,,8 G,,4 | %21
 A,,4 B,,8 | E,12 | A,,8 E,8 |] %24

